packages/ffe-icons/icons/filled/sm/roller_skating.svg

<svg xmlns="http://www.w3.org/2000/svg" height="20" viewBox="0 -960 960 960" width="20"><path d="M242.308-322.001q-26.527 0-45.417-18.89t-18.89-45.417v-451.384q0-26.527 18.89-45.417t45.417-18.89h181.538q26.527 0 45.417 18.89 18.891 18.89 18.891 45.417v48H384q-7.077 0-14.384 7.307-7.308 7.308-7.308 14.385t7.308 14.385q7.307 7.307 14.384 7.307h104.192v2.418q0 11.604-.019 25.209-.019 13.604.365 24.989H384q-8.677 0-15.185 6.508-6.507 6.507-6.507 15.184t6.507 15.184q6.508 6.508 15.185 6.508h115.852q5.378 11 15.494 17 10.115 6 21.115 10l164 50q35.026 9.452 56.359 39.062 21.333 29.609 21.333 66.322v81.616q0 26.527-18.89 45.417-18.891 18.89-45.417 18.89H242.308Zm-20.263 277q-43.814 0-79.929-33.57t-36.115-77.384q0-43.814 27.07-70.929 27.07-27.115 70.884-27.115t70.929 27.07q27.115 27.07 27.115 70.884t-18.07 77.43q-18.07 33.614-61.884 33.614Zm534.5-13q-43.314 0-70.929-27.07-27.615-27.07-27.615-70.884t27.57-70.929q27.57-27.115 70.884-27.115t70.429 27.07q27.115 27.07 27.115 70.884t-27.07 70.93q-27.07 27.114-70.384 27.114Zm-277 0q-43.314 0-70.429-27.07-27.115-27.07-27.115-70.884t27.07-70.929q27.07-27.115 70.384-27.115t70.929 27.07q27.615 27.07 27.615 70.884t-27.57 70.93q-27.57 27.114-70.884 27.114Z"/></svg>

<svg xmlns="http://www.w3.org/2000/svg" height="20" viewBox="0 -960 960 960" width="20"><path d="M242.31-322q-26.53 0-45.42-18.89T178-386.31v-451.38q0-26.53 18.89-45.42T242.31-902h181.54q26.52 0 45.41 18.89 18.89 18.89 18.89 45.42v48H384q-7.08 0-14.38 7.31-7.31 7.3-7.31 14.38 0 7.08 7.31 14.38 7.3 7.31 14.38 7.31h104.19v2.42q0 11.6-.02 25.21-.02 13.6.37 24.99H384q-8.68 0-15.18 6.51-6.51 6.5-6.51 15.18t6.51 15.18q6.5 6.51 15.18 6.51h115.85q5.38 11 15.5 17 10.11 6 21.11 10l164 50q35.03 9.45 56.36 39.06 21.33 29.61 21.33 66.33v81.61q0 26.53-18.89 45.42T713.85-322H242.31ZM222.05-45q-43.82 0-79.93-33.57Q106-112.14 106-155.95q0-43.82 27.07-70.93Q160.14-254 203.95-254q43.82 0 70.93 27.07Q302-199.86 302-156.05q0 43.82-18.07 77.43Q265.86-45 222.05-45Zm534.5-13q-43.32 0-70.93-27.07Q658-112.14 658-155.95q0-43.82 27.57-70.93Q713.14-254 756.45-254q43.32 0 70.43 27.07Q854-199.86 854-156.05q0 43.82-27.07 70.93Q799.86-58 756.55-58Zm-277 0q-43.32 0-70.43-27.07Q382-112.14 382-155.95q0-43.82 27.07-70.93Q436.14-254 479.45-254q43.32 0 70.93 27.07Q578-199.86 578-156.05q0 43.82-27.57 70.93Q522.86-58 479.55-58Z"/></svg>
